X:1
T:Divine Heritage, LM
T:Divine Heritage, LM
T:Scott Werdebaugh, 2017 & New Heart Music
T:© 2017  by Scott Werdebaugh &amp; New Heart Music - May freely copy and use for Christian worship or devotions without any changes. All other rights reserved.
C:Scott Werdebaugh, 2017 & New Heart Music
Z:© 2017  by Scott Werdebaugh & New Heart Music - May freely copy and use for
Z:Christian worship or devotions without any changes. All other rights reserved.
%%score ( 1 2 ) 3
L:1/8
Q:1/4=98
M:4/4
K:Eb
V:1 treble 
V:2 treble 
V:3 bass 
V:1
"^Reflectively, in Appreciation" [Ge] | [GB]2 [FA]2 [EG]2 [GB]2 | [Ac]2 [Ac]2 [GB]2 z [GB] | %3
 [FA]2 [EG]2 [DF]2 [EG]2 | [DF]2 [DF]2 !fermata!E2 z [EG] | [FA]2 [GB]2 [Ac]2 [GB]2 | %6
 [FB]2 [FA]2 [EG]2 z [GB] | [FA]2 [GB]2 [Ac]2 [GB]2 | [Ac]2 [Fd]2 !fermata![Ge]2 z |] %9
V:2
 x | x8 | x8 | x8 | x4 E2 x2 | x8 | x8 | x8 | x7 |] %9
V:3
 [E,B,] | [E,G,]2 [B,,B,]2 [E,B,]2 [E,G,]2 | [E,A,]2 [E,A,]2 [E,G,]2 z [E,G,] | %3
 [B,,B,]2 [E,B,]2 [B,,B,]2 [E,B,]2 | [B,,B,]2 [B,,A,]2 !fermata![E,G,]2 z [E,B,] | %5
 [B,,B,]2 [E,G,]2 [E,A,]2 [E,G,]2 | [D,B,]2 [B,,B,]2 [E,B,]2 z [E,G,] | %7
 [B,,B,]2 [E,G,]2 [E,A,]2 [E,G,]2 | [E,A,]2 [B,,B,]2 !fermata![E,B,]2 z |] %9

